X: 28944
T: Nana Para Estrella
R: waltz
M: 3/4
K: Bminor
Bdf3d|gf ed cd|dc B3d|A3B AG|
Bdf3d|1 gf ed cd|a6-|a6:|2 gf ed df|e6-|e6||
|:gf e3g|fe dc Bc|dcB3d|A3B df|
gf e3g|1 fe dc Bd|a6-|a6:|2 fe dc Bd|d6-|d6||
|:cd a3d|cda3b|ba ag ga|f3g fd|
cd a3d|1 cda3c|B6-|B6:|2 cda3d|e6-|e6||

